icons/desktop/12/svg/barbell-12.svg

<svg width="12" height="12" viewBox="0 0 12 12" fill="none" xmlns="http://www.w3.org/2000/svg">
<path fill-rule="evenodd" clip-rule="evenodd" d="M3.62402 3C4.38319 3.00001 4.99902 3.61583 4.99902 4.375V5.875H7V4.375C7 3.61582 7.61582 3 8.375 3H9.25879C10.0797 3 10.7755 3.60788 10.875 4.42871L10.9268 4.91016C10.9516 5.17915 10.9708 5.45936 10.9834 5.75H11.25C11.664 5.75 12 6.086 12 6.5C12 6.914 11.664 7.25 11.25 7.25H10.9814C10.9638 7.65533 10.933 8.08931 10.8789 8.54785V8.5498C10.7816 9.3605 10.1003 10 9.25977 10H8.375C7.61582 10 7 9.38418 7 8.625V7.125H4.99902V8.625C4.99902 9.38309 4.38526 10 3.625 10H2.74121C1.97164 10 1.31185 9.46575 1.15039 8.72266L1.125 8.57129C1.07507 8.16018 1.03894 7.71862 1.01855 7.25H0.75C0.336 7.25 0 6.914 0 6.5C0 6.086 0.336 5.75 0.75 5.75H1.01855C1.03617 5.34467 1.06701 4.91068 1.12109 4.45215V4.4502C1.21835 3.64028 1.89799 3 2.73926 3H3.62402ZM2.73926 4.25C2.55666 4.25 2.38722 4.3917 2.3623 4.59961C2.27956 5.30157 2.25 5.94055 2.25 6.5C2.25 7.19905 2.29505 7.84309 2.36523 8.4209L2.37988 8.48828C2.42778 8.64103 2.57039 8.75 2.74121 8.75H3.625C3.69274 8.75 3.74902 8.69491 3.74902 8.625V4.375C3.74902 4.30619 3.69283 4.25001 3.62402 4.25H2.73926ZM8.375 4.25C8.30618 4.25 8.25 4.30618 8.25 4.375V8.625C8.25 8.69382 8.30618 8.75 8.375 8.75H9.25977C9.44313 8.75 9.61287 8.60751 9.6377 8.40039C9.72044 7.69843 9.75 7.05945 9.75 6.5C9.75 5.97591 9.72493 5.48284 9.68262 5.02539L9.63477 4.5791C9.61213 4.39206 9.4538 4.25 9.25879 4.25H8.375Z" fill="black"/>
</svg>

<!-- This Source Code Form is subject to the terms of the Mozilla Public
   - License, v. 2.0. If a copy of the MPL was not distributed with this
   - file, You can obtain one at http://mozilla.org/MPL/2.0/. -->
<svg xmlns="http://www.w3.org/2000/svg" width="12" height="12" fill="context-fill" fill-opacity="context-fill-opacity" viewBox="0 0 12 12">
    <path fill-rule="evenodd" d="M3.624 3c.76 0 1.375.616 1.375 1.375v1.5H7v-1.5C7 3.615 7.616 3 8.375 3h.884c.82 0 1.516.608 1.616 1.429l.052.481q.038.405.056.84h.267a.75.75 0 0 1 0 1.5h-.269c-.017.405-.048.84-.102 1.298v.002A1.64 1.64 0 0 1 9.259 10h-.884C7.615 10 7 9.384 7 8.625v-1.5H4.999v1.5c0 .758-.614 1.375-1.374 1.375h-.884c-.77 0-1.43-.534-1.59-1.277l-.026-.152q-.076-.616-.106-1.321H.75a.75.75 0 0 1 0-1.5h.269c.017-.405.048-.84.102-1.298V4.45C1.218 3.64 1.898 3 2.74 3zm-.885 1.25a.39.39 0 0 0-.377.35 16.2 16.2 0 0 0 .003 3.82l.015.068c.048.153.19.262.361.262h.884a.124.124 0 0 0 .124-.125v-4.25a.125.125 0 0 0-.125-.125zm5.636 0a.125.125 0 0 0-.125.125v4.25c0 .069.056.125.125.125h.885a.39.39 0 0 0 .378-.35 16.2 16.2 0 0 0 .045-3.375l-.048-.446a.375.375 0 0 0-.376-.329z" clip-rule="evenodd" />
</svg>
